X: 10101
T: Dieter's Squeezing The Box
R: reel
M: 4/4
K: Amixolydian
|:"A"Acec Acec|"G" GBdc BG ~G2|"A"Acec Acef|"G"~g3d ge (3dcB|
"A"Aced ceee|"G"GBdc Bdgd|"A"c>zef "G"gedB|"G"GABG "A"A2 A2:|
|:"A"aece a2af|"G"g2g>z g2 (3.B.c.d|"A"aecA c=c^ce|"G"g2gB GA (3.B.c.d|
"A"a2ae aeee|"G"gdBd gdBG|"A"Acef "G"gede|g2BG "A"A2 A2:|

